icons/handshake.svg

<svg width="24" height="24" viewBox="0 0 24 24" fill="none" xmlns="http://www.w3.org/2000/svg">
<path d="M20.2636 12.4477L18.7611 14.2437L14.6293 11.1734L13.4273 12.0944C12.9072 12.4929 12.2745 12.7084 11.6244 12.7084C10.9742 12.7084 10.3415 12.4929 9.82139 12.0944L9.31235 11.7043C9.22625 11.6384 9.15502 11.5543 9.1035 11.4577C9.05199 11.3612 9.02138 11.2544 9.01375 11.1447C9.00612 11.0351 9.02164 10.925 9.05928 10.822C9.09692 10.7189 9.15578 10.6254 9.23189 10.5476L12.9068 6.79316C12.9766 6.72189 13.0594 6.66535 13.1505 6.62678C13.2417 6.58821 13.3394 6.56836 13.438 6.56836L17.2587 6.56847" stroke="#1E293B" stroke-width="2" stroke-linecap="round" stroke-linejoin="round"/>
<path d="M10.4975 19.9999L7.66727 19.277C7.55242 19.2477 7.44598 19.191 7.35663 19.1117L5.23884 17.231" stroke="#1E293B" stroke-width="2" stroke-linecap="round" stroke-linejoin="round"/>
<path d="M3.73638 12.3447L8.86931 16.4457C8.9522 16.5119 9.04778 16.5596 9.14987 16.5857L14.5923 17.9758C14.7182 18.0079 14.85 18.0062 14.975 17.9708C15.1001 17.9354 15.214 17.8676 15.3057 17.7739L18.7611 14.2436" stroke="#1E293B" stroke-width="2" stroke-linecap="round" stroke-linejoin="round"/>
<path d="M6.79526 6.46605L11.6145 5.03067C11.7866 4.9794 11.971 4.99273 12.1344 5.06825L15.3806 6.56888" stroke="#1E293B" stroke-width="2" stroke-linecap="round" stroke-linejoin="round"/>
<path d="M22.5847 11.2624L20.2636 12.4481L17.2587 6.56882L19.6034 5.37107C19.7796 5.28108 19.9833 5.26537 20.1707 5.32732C20.358 5.38927 20.5141 5.52392 20.6053 5.70229L22.9147 10.2207C22.9609 10.311 22.989 10.4099 22.9973 10.5114C23.0057 10.613 22.9942 10.7153 22.9635 10.8122C22.9328 10.9092 22.8835 10.999 22.8184 11.0762C22.7534 11.1535 22.674 11.2168 22.5847 11.2624Z" stroke="#1E293B" stroke-width="2" stroke-linecap="round" stroke-linejoin="round"/>
<path d="M3.73638 12.3451L2.57583 11.7522L1.41527 11.1594C1.32604 11.1138 1.24659 11.0505 1.18155 10.9732C1.11652 10.8959 1.06721 10.8062 1.03649 10.7092C1.00577 10.6122 0.994273 10.51 1.00266 10.4084C1.01104 10.3068 1.03914 10.208 1.08532 10.1177L3.39472 5.59927C3.48588 5.4209 3.64196 5.28624 3.82935 5.22429C4.01673 5.16234 4.22044 5.17805 4.3966 5.26804L6.74134 6.46579L3.73638 12.3451Z" stroke="#1E293B" stroke-width="2" stroke-linecap="round" stroke-linejoin="round"/>
</svg>

<svg
  width="24"
  height="24"
  viewBox="0 0 24 24"
  xmlns="http://www.w3.org/2000/svg"
  fill="none"
  stroke="currentColor"
  stroke-width="2"
  stroke-linecap="round"
  stroke-linejoin="round"
>
  <path d="M20.264 12.448l-1.503 1.796-4.132-3.07-1.202.92a2.963 2.963 0 0 1-1.803.614c-.65 0-1.283-.215-1.803-.614l-.509-.39a.762.762 0 0 1-.298-.56.782.782 0 0 1 .218-.596l3.675-3.755a.751.751 0 0 1 .531-.225h3.82" />
  <path d="M10.498 20l-2.83-.723a.746.746 0 0 1-.311-.165L5.239 17.23" />
  <path d="M3.736 12.345l5.133 4.1a.746.746 0 0 0 .28.14l5.443 1.39a.736.736 0 0 0 .714-.201l3.455-3.53" />
  <path d="M6.795 6.466l4.82-1.435a.736.736 0 0 1 .52.037l3.246 1.5" />
  <path d="M22.585 11.262l-2.321 1.186-3.005-5.88 2.344-1.197a.737.737 0 0 1 .568-.044.756.756 0 0 1 .434.375l2.31 4.519a.778.778 0 0 1-.33 1.041z" />
  <path d="M3.736 12.345l-1.16-.593-1.16-.593a.754.754 0 0 1-.38-.45.783.783 0 0 1 .05-.591l2.309-4.519a.756.756 0 0 1 .434-.375.737.737 0 0 1 .568.044L6.74 6.466l-3.005 5.88z" />
</svg>
